packages/ui/src/components/Icon/Icon.assets/hotel.svg

<svg width="24" height="24" viewBox="0 0 24 24" fill="none" xmlns="http://www.w3.org/2000/svg">
<path fill-rule="evenodd" clip-rule="evenodd" d="M5.78319 3.82684C5.32565 3.92852 5.00012 4.33433 5.00012 4.80303V18.3965C5.00012 19.3339 5.65119 20.1455 6.56626 20.3489L12.7832 21.7304C13.4077 21.8692 14.0001 21.394 14.0001 20.7542V3.24748C14.0001 2.60773 13.4077 2.13251 12.7832 2.27129L5.78319 3.82684ZM12.9994 12.9996H9.99938V14.4996H12.9994V12.9996Z" fill="white"/>
<path d="M16.0007 4H18.0007C18.553 4 19.0007 4.44772 19.0007 5V19C19.0007 19.5523 18.553 20 18.0007 20H16.0007V4Z" fill="white"/>
</svg>

<svg width="24" height="24" fill="none" xmlns="http://www.w3.org/2000/svg"><path fill-rule="evenodd" clip-rule="evenodd" d="M5.783 3.827A1 1 0 005 4.803v13.593a2 2 0 001.566 1.953l6.217 1.381A1 1 0 0014 20.754V3.247a1 1 0 00-1.217-.976l-7 1.556zM13 13h-3v1.5h3V13z" fill="#fff"/><path d="M16 4h2a1 1 0 011 1v14a1 1 0 01-1 1h-2V4z" fill="#fff"/></svg>
